X: 1381
T: GIPSEY WALTZ
C: von Weber
B: Oliver Ditson "The Boston Collection of Instrumental Music" 1910 p.138-139
F: http://conquest.imslp.info/files/imglnks/usimg/8/8f/IMSLP175643-PMLP309456-bostoncollection00bost_bw.pdf
%: 2012 John Chambers <jc:trillian.mit.edu>
N: The last part has an initial repeat, but no final repeat, only a "D.C."; dropped the initial repeat.
N: The bass part really is notated "BASE".
M: 3/4
L: 1/8
K: D
%----------
V: 1
"^1st VIOLIN, or FLUTE"|:!f!\
(DF).A.F.d.A | .f.d.a.f.d'.a | f2b>fg2 | a>ef2g>^d |\
e2f>c=d2 | e>Bc2A2 | .d2.c2.d2 | .e2.f2.^g2 |\
.a2.[c'2c2].[d'2d2] | .[e'2e2].[a'2a2]z2 :|
|:\
"^>"^g(a=gecA) | "^>"b(afdAF) | "^>"^g(a=gecA) | "^>"b(afdAF) |\
(DF).A.F.d.A | .f.d.a.f.d'.a | f2b>fg2 | a>ef2g>d |\
.e2.a2.c'2 | .e'2.d'2"_FINE"z2 H:|
|:!p!\
d6 | A6 | .F2.A2.d2 | f6 |\
"^>"(^d4e)z | "^>"(^d4e)z | (a6 | e2)z2z2 |\
"^8va _ _ _"d6 | A6 | .F2 .A2 .d2 | f6 |\
(^d4e2) | a4z2 | (e6 | d2)z2z2 :|
"^LOCO""_DOLCE"(e4^de | fe^dcBA) | (g4fe | (^d4e))z |\
(b4ag | fe^defe) | (gfe=dcB | A^GBA=GE) |\
!pp!B6 | A6 | F2A2.d2 | f6 |
"^>"(^d4e)z | "^>"(^d4e)z | (a6 | e2)z2z2 |\
"8va _ _ _"d6 | A6 | F2A2d2 | f6 |\
(^d4e2) | (a4c2) | "^>"(e6 | d2)z2z2 "^D.C."|]
%----------
V: 2
"^2d VIOLIN"|:!f!\
!/![F6A,6] | !/![F6A,6] | [F2A,2]!/!B4 | !/!A4GG | GG !/!F4 | !/!E6 |
.[A2D2].G2.F2 | .A2.A2.d2 | .c2.e2.d2 | .c2.[a2c2]z2 :|
|:\
"_>"[c6E6] | "_>"[d6D6] | "_>"[c6E6] | "_>"[d6D6] |\
!/![F6D6] | !/![F6D6] | [A2F2]!/!B4 | !/!A4GG | .G2.c2.e2 | .[g2A2].[f2A2]z2 H:|
|:!p!\
z2(.[F2A,2].[F2A,2] | .[F2A,2].[F2A,2].[F2A,2]) | z2(.[F2A,2].[F2A,2] | .[F2A,2].[F2A,2].[F2A,2]) |\
z2(.[G2A,2].[G2A,2] | .[G2A,2].[G2A,2].[G2A,2]) | z2(.[G2A,2].[G2A,2] | .[G2A,2].[G2A,2].[G2A,2]) |\
z2(.[F2A,2].[F2A,2]) | (.[F2A,2].[F2A,2].[F2A,2]) |
z2[F2A,2][F2A,2] | [F2A,2][F2A,2][F2A,2] |\
z2[G2A,2][G2A,2] | [G2A,2][G2A,2][G2A,2] |\
"^>"([G6A,6] | [F2A,2])z2z2 :|
%
z2.[G2A,2](.[G2A,2] | .[G2A,2].[G2A,2]).[G2A,2] |\
z2[G2A,2][G2A,2] | [F2A,2][F2A,2][G2A,2] |\
z2[G2A,2][G2A,2] | [G2A,2][G2A,2][G2A,2] |\
([G6A,6] | [F2A,2])z2z2 |
!pp!z2(.[F2A,2].[F2A,2] | .[F2A,2].[F2A,2]).[F2A,2] |\
z2[F2A,2][F2A,2] | [F2A,2][F2A,2][F2A,2] |\
z2[G2A,2][G2A,2] | [G2A,2][G2A,2][G2A,2] |\
z2[G2A,2][G2A,2] | [G2A,2][G2A,2][G2A,2] |\
z2[F2A,2][F2A,2] | [F2A,2][F2A,2][F2A,2] |\
z2[F2A,2][F2A,2] | [F2A,2][F2A,2][F2A,2] |\
z2[G2A,2][G2A,2] | [G2A,2][G2A,2][G2A,2] |\
"^>"([G6A,6] | [F2A,2])z2z2 "^D.C."|]
%----------
V: 3 clef=alto middle=c
"^ALTO"|:!f!\
!/!d6 | !/!d6 | d2f2g2 | e2f2^d2 | e2c2=d2 | B2c2c2 |\
.e2.A2.A2 | .g2.f2.e2 | .e2.a2.a2 | .a2.[a2c2]z2 :|
|:\
"^>"[g6A6] | "^>"[f6A6] | "^>"[g6A6] | "^>"[f6A6] |\
!/!d6 |!/!d6 | d2f2g2 | e2f2d2 | .e2.g2.a2 | .c'2.d'2"_FINE"z2 H:|
|:!p!\
z2(.d2.d2 | .d2.d2.d2) | z2.d2(.d2 | .d2.d2.d2) |\
z2(.c2.c2 | .c2.c2.c2) | z2(.c2.c2 | .c2.c2.c2) |\
z2(.d2.d2) | (.d2.d2.d2) | z2d2d2 | d2d2d2 |\
z2c2c2 | c2c2c2 | "^>"(c6 | d2)z2z2 :|
z2.c2(.c2 | .c2.c2).c2 | z2c2c2 | ^B2B2c2 |\
z2c2c2 | c2c2c2 | c6- | c2z2z2 |
!pp!z2.d2(.d2 | .d2.d2.).d2 | z2d2d2 | d2d2d2 |\
c2c2c2 | c2c2c2 | z2c2c2 | c2c2c2 |\
z2d2d2 | d2d2d2 | z2d2d2 | d2d2d2 |\
z2c2c2 | c2c2c2 | "^>"(c6 | d2)z2z2 "_D.C."|]
%----------
V: 4 clef=bass middle=d
"^BASE"|:!f!\
d2d2d2 | d2d2d2 | .d2.^d2.e2 | .c2.=d2.B2 | .c2.A2.B2 | .^G2.A2.=g2 |\
.f2.e2.d2 | .c2.d2.B2 | .A2.g2.f2 | .e2.A2z2 :|
|:\
"_>"A6 | "_>"A6 | "_>"A6 | "_>"A6 | d2d2d2 | d2d2d2 |\
.d2^d2.e2 | .c2.=d2.B2 | .c2.e2.g2 | A2d2z2 H:|
|:!p!\
!/!D4z2 | z6 | !/!D4z2 | z6 | A4z2 | z6 | A4z2 | z6 |\
!/!D4z2 | z6 | !/!D4z2 | z6 | A4z2 | A2z2z2 | "^>"(A6 | d2)z2z2 :|
A4z2 | z6 | A4z2 | z6 | A6- | A6 | A6- | A2z2z2 |!pp!\
!/!D4z2 | z6 | !/!D4z2 | z6 | A4z2 | z6 | A4z2 | z6 |\
!/!D4z2 | z6 | !/!D4z2 | z6 | A4z2 | A2z2z2 | "^>"(A6 |d2)z2z2 "^D.C."|]

%%sep 1 1 500
%%sep 1 1 500
